Numix-GalliumOS/32/emblems/emblem-pictures.svg

<?xml version="1.0" encoding="UTF-8" standalone="no"?>
<svg
   xmlns:dc="http://purl.org/dc/elements/1.1/"
   xmlns:cc="http://creativecommons.org/ns#"
   xmlns:rdf="http://www.w3.org/1999/02/22-rdf-syntax-ns#"
   xmlns:svg="http://www.w3.org/2000/svg"
   xmlns="http://www.w3.org/2000/svg"
   xmlns:sodipodi="http://sodipodi.sourceforge.net/DTD/sodipodi-0.dtd"
   xmlns:inkscape="http://www.inkscape.org/namespaces/inkscape"
   width="32"
   height="32"
   viewBox="0 0 32 32"
   id="svg2"
   version="1.1"
   inkscape:version="0.91 r13725"
   sodipodi:docname="emblem-pictures.svg">
  <metadata
     id="metadata12">
    <rdf:RDF>
      <cc:Work
         rdf:about="">
        <dc:format>image/svg+xml</dc:format>
        <dc:type
           rdf:resource="http://purl.org/dc/dcmitype/StillImage" />
      </cc:Work>
    </rdf:RDF>
  </metadata>
  <defs
     id="defs10" />
  <sodipodi:namedview
     pagecolor="#ffffff"
     bordercolor="#666666"
     borderopacity="1"
     objecttolerance="10"
     gridtolerance="10"
     guidetolerance="10"
     inkscape:pageopacity="0"
     inkscape:pageshadow="2"
     inkscape:window-width="1366"
     inkscape:window-height="704"
     id="namedview8"
     showgrid="true"
     inkscape:object-nodes="true"
     inkscape:zoom="21.755963"
     inkscape:cx="10.082373"
     inkscape:cy="16"
     inkscape:window-x="0"
     inkscape:window-y="27"
     inkscape:window-maximized="1"
     inkscape:current-layer="svg2">
    <inkscape:grid
       type="xygrid"
       id="grid4140" />
  </sodipodi:namedview>
  <path
     style="fill:#fff;stroke:#777;stroke-width:.5"
     d="M 25.932953 35.186401 C 25.932953 42.095309 20.446393 47.695712 13.677926 47.695712 C 6.90946 47.695712 1.4229 42.095309 1.4229 35.186401 C 1.4229 28.277492 6.90946 22.677089 13.677926 22.677089 C 20.446393 22.677089 25.932953 28.277492 25.932953 35.186401 Z "
     transform="matrix(1.06653 0 0 1.04485 1.41213 -20.76439)"
     id="path4" />
  <path
     style="fill:#427fec;fill-opacity:0.94100001"
     d="M 9.039062,8 C 8.476562,8.054688 7.988281,8.648438 8,9.28125 L 8,22.75 c 0.00781,0.664062 0.539062,1.257812 1.132812,1.25 l 13.765626,0 C 23.480469,23.988281 23.992188,23.402344 24,22.75 L 24,9.28125 C 24.007812,8.617188 23.488281,8.007812 22.898438,8 Z M 10,10 l 12,0 0,10 -12,0 z"
     id="path6"
     inkscape:connector-curvature="0"
     sodipodi:nodetypes="cccccccccccccc" />
</svg>

<svg xmlns="http://www.w3.org/2000/svg" viewBox="0 0 32 32">
 <path d="m 25.933 35.19 c 0 6.909 -5.487 12.509 -12.255 12.509 c -6.768 0 -12.255 -5.6 -12.255 -12.509 c 0 -6.909 5.487 -12.509 12.255 -12.509 c 6.768 0 12.255 5.6 12.255 12.509 Z" transform="matrix(1.06653 0 0 1.04485 1.41213 -20.76439)" style="fill:#fff;stroke:#777;stroke-width:0.5"/>
 <path d="m 9.04 8 c -0.563 0.055 -1.051 0.648 -1.039 1.281 l 0 13.469 c 0.008 0.664 0.539 1.258 1.133 1.25 l 13.766 0 c 0.582 -0.012 1.094 -0.598 1.102 -1.25 l 0 -13.469 c 0.008 -0.664 -0.512 -1.273 -1.102 -1.281 m -12.898 2 l 12 0 0 10 -12 0 z" style="fill:#427fec;fill-opacity:0.941"/>
</svg>
